svgs/thin/box-check.svg

<svg xmlns="http://www.w3.org/2000/svg" viewBox="0 0 448 512"><!--! Font Awesome Pro 6.0.0-alpha3 by @fontawesome - https://fontawesome.com License - https://fontawesome.com/license (Commercial License) --><path d="M441.2 146.5l-48.4-96.8C387.4 38.85 376.3 32 364.2 32H83.78C71.66 32 60.58 38.85 55.16 49.69L6.756 146.5C2.313 155.4 0 165.2 0 175.1V448c0 17.67 14.33 32 32 32h384c17.67 0 32-14.33 32-32V175.1C448 165.2 445.7 155.4 441.2 146.5zM232 48h132.2c6.1 0 11.58 3.389 14.31 8.844l48.4 96.8C427.9 155.7 428.5 157.9 429.2 160H232V48zM21.07 153.6l48.4-96.8C72.2 51.39 77.68 48 83.78 48H216V160H18.77C19.48 157.9 20.06 155.7 21.07 153.6zM432 448c0 8.822-7.178 16-16 16H32c-8.822 0-16-7.178-16-16V176h416V448zM194.3 381.7C195.9 383.2 197.9 384 200 384s4.094-.7813 5.656-2.344l120-120c3.125-3.125 3.125-8.188 0-11.31s-8.188-3.125-11.31 0L200 364.7L141.7 306.3c-3.125-3.125-8.188-3.125-11.31 0s-3.125 8.188 0 11.31L194.3 381.7z"/></svg>

<svg xmlns="http://www.w3.org/2000/svg" viewBox="0 0 448 512"><!-- Font Awesome Pro 6.0.0-alpha2 by @fontawesome - https://fontawesome.com License - https://fontawesome.com/license (Commercial License) --><path d="M441.244 146.486L392.844 49.689C387.424 38.848 376.344 32 364.223 32H83.777C71.656 32 60.576 38.848 55.156 49.689L6.756 146.486C2.312 155.373 0 165.172 0 175.107V448C0 465.672 14.326 480 32 480H416C433.674 480 448 465.672 448 448V175.107C448 165.172 445.688 155.373 441.244 146.486ZM232 48H364.223C370.322 48 375.805 51.389 378.533 56.844L426.934 153.641C427.943 155.66 428.52 157.857 429.234 160H232V48ZM21.066 153.643L69.467 56.844C72.195 51.389 77.678 48 83.777 48H216V160H18.768C19.48 157.857 20.057 155.662 21.066 153.643ZM432 448C432 456.822 424.822 464 416 464H32C23.178 464 16 456.822 16 448V176H432V448ZM194.344 381.656C195.906 383.219 197.938 384 200 384S204.094 383.219 205.656 381.656L325.656 261.656C328.781 258.531 328.781 253.469 325.656 250.344S317.469 247.219 314.344 250.344L200 364.688L141.656 306.344C138.531 303.219 133.469 303.219 130.344 306.344S127.219 314.531 130.344 317.656L194.344 381.656Z"/></svg>
